X:37
T:King of the Clans
S:Trad, arr. Paddy O'Brien 
Z:Set: King of the Clan's/My Love is in America/Flogging
R:reel
E:9
I:speed 350
M:C|
K:G
c|:~d2GA Bdge|dedB AGEG|DGBG dGBG|cege dcBc|\
dGBd gdBd|gabg agef|gf (3gfe dBge|dBAc BG G2:|\
f|:~g2bg (3efg de|gdBG AGEG|DGBG dGBd|cege dcBd|\
~g2bg edge|dBGB AGEG|DGBd gece|dBAc BG G2:|**

